**harm	**harte	**timestamp	**phrase	**leadinstrument	**kern
*M4/4	*M4/4	*	*	*	*
*A-:	*A-:	*	*	*	*A-:
1r;	N	0	.	r	1r;
=1	=1	=1	=1	=1	=1
*>A_intro	*>A_intro	*>A_intro	*>A_intro	*>A_intro	*>A_intro
1ivc	D-:minmaj7/5	0.511	newline	piano	1d- 1f- 1A-
=2	=2	=2	=2	=2	=2
1I	A-:maj	2.557	.	piano	1A- 1cc 1ee-
=3	=3	=3	=3	=3	=3
1ivc	D-:minmaj7/5	4.604	.	piano	1d- 1f- 1A-
=4	=4	=4	=4	=4	=4
1I	A-:maj	6.65	.	piano	1A- 1cc 1ee-
=5	=5	=5	=5	=5	=5
1I	A-:maj	8.697	.	piano	1A- 1cc 1ee-
=6	=6	=6	=6	=6	=6
*>B_verse	*>B_verse	*>B_verse	*>B_verse	*>B_verse	*>B_verse
1iv	D-:min	10.743	newline	voice	1D- 1f- 1a-
=7	=7	=7	=7	=7	=7
2i	A-:min	12.733	.	voice	2A- 2cc- 2ee-
2V7b	E-:7/3	13.728	.	voice	2e- 2G 2b- 2dd-
=8	=8	=8	=8	=8	=8
1iv	D-:min	14.723	.	voice	1D- 1f- 1a-
=9	=9	=9	=9	=9	=9
2i	A-:min	16.713	.	voice	2A- 2cc- 2ee-
2V7	E-:7	17.708	.	voice	2E- 2g 2b- 2dd-
=10	=10	=10	=10	=10	=10
1iv	D-:min	18.703	newline	voice	1D- 1f- 1a-
=11	=11	=11	=11	=11	=11
2i	A-:min	20.668	.	voice	2A- 2cc- 2ee-
2V7b	E-:7/3	21.651	.	voice	2e- 2G 2b- 2dd-
=12	=12	=12	=12	=12	=12
1iv	D-:min	22.634	.	voice	1D- 1f- 1a-
=13	=13	=13	=13	=13	=13
2IV	D-:sus4	24.599	.	voice	2D- 2f 2a-
2IV	D-:maj	25.582	.	voice	2D- 2f 2a-
=14	=14	=14	=14	=14	=14
*>C_chorus	*>C_chorus	*>C_chorus	*>C_chorus	*>C_chorus	*>C_chorus
1VI7	F:7	26.564	newline	voice	1F 1a 1cc 1ee-
=15	=15	=15	=15	=15	=15
1II	B-:maj	28.563	.	voice	1B- 1dd 1ff
=16	=16	=16	=16	=16	=16
1VI7	F:7	30.562	.	voice	1F 1a 1cc 1ee-
=17	=17	=17	=17	=17	=17
1II	B-:maj	32.56	.	voice	1B- 1dd 1ff
=18	=18	=18	=18	=18	=18
1V7	E-:7	34.559	newline	voice	1E- 1g 1b- 1dd-
=19	=19	=19	=19	=19	=19
1I	A-:maj	36.566	.	voice	1A- 1cc 1ee-
=20	=20	=20	=20	=20	=20
1#io	A:dim	38.573	.	voice	1A 1cc 1ee-
=21	=21	=21	=21	=21	=21
1vii	G:min	40.58	newline	voice	1G 1b- 1dd
=22	=22	=22	=22	=22	=22
2#ioc	A:dim/b5	42.576	.	voice	2a 2cc 2E-
2#iob	A:dim/b3	43.574	.	voice	2a 2C 2ee-
=23	=23	=23	=23	=23	=23
1V7	E-:7(b13)	44.572	.	voice	1E- 1g 1b- 1dd-
=24	=24	=24	=24	=24	=24
1I	A-:maj	46.569	.	voice	1A- 1cc 1ee-
=25	=25	=25	=25	=25	=25
1I	A-:maj	48.565	.	voice	1A- 1cc 1ee-
=26	=26	=26	=26	=26	=26
*>B_verse	*>B_verse	*>B_verse	*>B_verse	*>B_verse	*>B_verse
1iv	D-:min	50.561	newline	voice	1D- 1f- 1a-
=27	=27	=27	=27	=27	=27
2i	A-:min	52.55	.	voice	2A- 2cc- 2ee-
2V7b	E-:7/3	53.545	.	voice	2e- 2G 2b- 2dd-
=28	=28	=28	=28	=28	=28
1iv	D-:min	54.539	.	voice	1D- 1f- 1a-
=29	=29	=29	=29	=29	=29
2i	A-:min	56.528	.	voice	2A- 2cc- 2ee-
2V7	E-:7	57.522	.	voice	2E- 2g 2b- 2dd-
=30	=30	=30	=30	=30	=30
1iv	D-:min	58.517	newline	voice	1D- 1f- 1a-
=31	=31	=31	=31	=31	=31
2i	A-:min	60.524	.	voice	2A- 2cc- 2ee-
2V7b	E-:7/3	61.528	.	voice	2e- 2G 2b- 2dd-
=32	=32	=32	=32	=32	=32
1iv	D-:min	62.532	.	voice	1D- 1f- 1a-
=33	=33	=33	=33	=33	=33
2IV	D-:sus4	64.54	.	voice	2D- 2f 2a-
2IV	D-:maj	65.544	.	voice	2D- 2f 2a-
=34	=34	=34	=34	=34	=34
*>C_chorus	*>C_chorus	*>C_chorus	*>C_chorus	*>C_chorus	*>C_chorus
1VI7	F:7	66.548	newline	voice	1F 1a 1cc 1ee-
=35	=35	=35	=35	=35	=35
1II	B-:maj	68.546	.	voice	1B- 1dd 1ff
=36	=36	=36	=36	=36	=36
1VI7	F:7	70.543	.	voice	1F 1a 1cc 1ee-
=37	=37	=37	=37	=37	=37
1II	B-:maj	72.541	.	voice	1B- 1dd 1ff
=38	=38	=38	=38	=38	=38
1V7	E-:7	74.539	newline	voice	1E- 1g 1b- 1dd-
=39	=39	=39	=39	=39	=39
1I	A-:maj	76.524	.	voice	1A- 1cc 1ee-
=40	=40	=40	=40	=40	=40
1#io	A:dim	78.508	.	voice	1A 1cc 1ee-
=41	=41	=41	=41	=41	=41
1vii	G:min	80.493	newline	voice	1G 1b- 1dd
=42	=42	=42	=42	=42	=42
2#ioc	A:dim/b5	82.512	.	voice	2a 2cc 2E-
2#iob	A:dim/b3	83.521	.	voice	2a 2C 2ee-
=43	=43	=43	=43	=43	=43
1V7	E-:7(b13)	84.531	.	voice	1E- 1g 1b- 1dd-
=44	=44	=44	=44	=44	=44
1I	A-:maj	86.55	.	voice	1A- 1cc 1ee-
=45	=45	=45	=45	=45	=45
1I	A-:maj	88.569	.	voice	1A- 1cc 1ee-
=46	=46	=46	=46	=46	=46
*>B2_verse	*>B2_verse	*>B2_verse	*>B2_verse	*>B2_verse	*>B2_verse
1iv	D-:min	90.588	newline	voice	1D- 1f- 1a-
=47	=47	=47	=47	=47	=47
1i	A-:min	92.636	.	voice	1A- 1cc- 1ee-
=48	=48	=48	=48	=48	=48
1iv	D-:min	94.684	.	voice	1D- 1f- 1a-
=49	=49	=49	=49	=49	=49
1i	A-:min	96.731	.	voice	1A- 1cc- 1ee-
=50	=50	=50	=50	=50	=50
1iv	D-:min	98.779	newline	voice	1D- 1f- 1a-
=51	=51	=51	=51	=51	=51
1i	A-:min	100.837	.	voice	1A- 1cc- 1ee-
=52	=52	=52	=52	=52	=52
1iv	D-:min	102.894	.	voice	1D- 1f- 1a-
=53	=53	=53	=53	=53	=53
1I	A-:maj	104.952	.	voice	1A- 1cc 1ee-
1r;	N	107.009	.	r	1r;
1r;	N	109.067	.	r	1r;
=54	=54	=54	=54	=54	=54
*>D_bridge	*>D_bridge	*>D_bridge	*>D_bridge	*>D_bridge	*>D_bridge
1I	A-:maj	138.344	newline	voice	1A- 1cc 1ee-
=55	=55	=55	=55	=55	=55
1IV	D-:maj	142.77	.	voice	1D- 1f 1a-
=56	=56	=56	=56	=56	=56
1I	A-:maj	147.195	newline	voice	1A- 1cc 1ee-
=57	=57	=57	=57	=57	=57
1IV	D-:maj	151.723	.	voice	1D- 1f 1a-
=58	=58	=58	=58	=58	=58
1I	A-:maj	156.251	newline	voice	1A- 1cc 1ee-
=59	=59	=59	=59	=59	=59
1vi	F:min	160.492	.	voice	1F 1a- 1cc
=60	=60	=60	=60	=60	=60
1IV	D-:maj	164.734	newline	voice	1D- 1f 1a-
=61	=61	=61	=61	=61	=61
1IVm7	D-:7	168.595	.	voice	1D- 1f 1a- 1cc
=62	=62	=62	=62	=62	=62
*>C_chorus	*>C_chorus	*>C_chorus	*>C_chorus	*>C_chorus	*>C_chorus
1VI7	F:7	172.456	newline	voice	1F 1a 1cc 1ee-
=63	=63	=63	=63	=63	=63
1II	B-:maj	174.474	.	voice	1B- 1dd 1ff
=64	=64	=64	=64	=64	=64
1VI7	F:7	176.493	.	voice	1F 1a 1cc 1ee-
=65	=65	=65	=65	=65	=65
1II	B-:maj	178.511	.	voice	1B- 1dd 1ff
=66	=66	=66	=66	=66	=66
1V7	E-:7	180.53	newline	voice	1E- 1g 1b- 1dd-
=67	=67	=67	=67	=67	=67
1I	A-:maj	182.546	.	voice	1A- 1cc 1ee-
=68	=68	=68	=68	=68	=68
1#io	A:dim	184.563	.	voice	1A 1cc 1ee-
=69	=69	=69	=69	=69	=69
1vii	G:min	186.58	newline	voice	1G 1b- 1dd
=70	=70	=70	=70	=70	=70
2#ioc	A:dim/b5	188.593	.	voice	2a 2cc 2E-
2#iob	A:dim/b3	189.599	.	voice	2a 2C 2ee-
=71	=71	=71	=71	=71	=71
2VII	G:maj	190.605	.	voice	2G 2b 2dd
2III	C:maj	191.612	.	voice	2C 2e 2g
=72	=72	=72	=72	=72	=72
*>C_chorus	*>C_chorus	*>C_chorus	*>C_chorus	*>C_chorus	*>C_chorus
1VI7	F:7	192.618	newline	voice	1F 1a 1cc 1ee-
=73	=73	=73	=73	=73	=73
1II	B-:maj	194.645	.	voice	1B- 1dd 1ff
=74	=74	=74	=74	=74	=74
1VI7	F:7	196.673	.	voice	1F 1a 1cc 1ee-
=75	=75	=75	=75	=75	=75
1II	B-:maj	198.7	.	voice	1B- 1dd 1ff
=76	=76	=76	=76	=76	=76
1-VIm7	E:7	200.727	newline	voice	1F- 1a- 1cc- 1ee-
=77	=77	=77	=77	=77	=77
1-II	A:maj	202.757	.	voice	1B-- 1dd- 1ff-
=78	=78	=78	=78	=78	=78
1#io	A:dim	204.788	.	voice	1A 1cc 1ee-
=79	=79	=79	=79	=79	=79
1vii	G:min	206.818	newline	voice	1G 1b- 1dd
=80	=80	=80	=80	=80	=80
2#ioc	A:dim/b5	208.879	.	voice	2a 2cc 2E-
2#iob	A:dim/b3	209.909	.	voice	2a 2C 2ee-
=81	=81	=81	=81	=81	=81
1V7	E-:7(b13)	210.939	.	voice	1E- 1g 1b- 1dd-
=82	=82	=82	=82	=82	=82
1I	A-:maj	213	.	voice	1A- 1cc 1ee-
=83	=83	=83	=83	=83	=83
1I	A-:maj	215.061	.	voice	1A- 1cc 1ee-
=84	=84	=84	=84	=84	=84
*>A_outro	*>A_outro	*>A_outro	*>A_outro	*>A_outro	*>A_outro
1iv	D-:min	217.121	newline	piano	1D- 1f- 1a-
=85	=85	=85	=85	=85	=85
1I	A-:maj	219.596	.	piano	1A- 1cc 1ee-
=86	=86	=86	=86	=86	=86
1iv	D-:min	222.071	.	piano	1D- 1f- 1a-
=87	=87	=87	=87	=87	=87
1I	A-:maj	224.546	.	piano	1A- 1cc 1ee-
1r;	N	227.021	.	r	1r;
1r;	N	230.348	.	r	1r;
*-	*-	*-	*-	*-	*-
!!!OTL: My World Fell Down
!!!COC: Sagittarius
!!!BillboardChartDate: 1967/07/22
!!!BillboardPeak: 70
!!!BillboardWeeksOnChart: 5
!!!SampleTargetRank: 70
!!!SampleActualRank: 70
!!!SampleID#: 1182
!!!RDF**harmony: **recip + pitch class of root + harmonic quality
!!!RDF**harte: Chris Harte's syntax, used by MIREX
!!!RDF**phrase: newline = linebreak in original McGill transcription
!!!RDF**timestamp: McGill audio timestamp in seconds
!!!RDF**leadinstrument: original McGill primary instrumentation annotation
!!!RDT: 2017/01/12/
!!!ENC: Nathaniel Condit-Schultz
!!!EST: Awating manual error checking and editing.
